svg/aws-detective.svg

<?xml version="1.0" encoding="UTF-8"?>
<svg xmlns="http://www.w3.org/2000/svg" xmlns:xlink="http://www.w3.org/1999/xlink" width="32" height="32" viewBox="0 0 32 32">
<defs>
<linearGradient id="linear-pattern-0" gradientUnits="userSpaceOnUse" x1="0" y1="1" x2="1" y2="0" gradientTransform="matrix(32, 0, 0, 32, 0, 0)">
<stop offset="0" stop-color="rgb(74.117647%, 3.137255%, 8.627451%)" stop-opacity="1"/>
<stop offset="1" stop-color="rgb(100%, 32.156863%, 32.156863%)" stop-opacity="1"/>
</linearGradient>
</defs>
<rect x="-3.2" y="-3.2" width="38.4" height="38.4" fill="url(#linear-pattern-0)"/>
<path fill-rule="evenodd" fill="rgb(100%, 100%, 100%)" fill-opacity="1" d="M 10.902344 10.976562 C 11.640625 11.171875 12.511719 11.460938 13.410156 11.761719 C 14.777344 12.21875 16.332031 12.734375 17 12.734375 C 17.667969 12.734375 19.222656 12.21875 20.59375 11.761719 C 21.492188 11.460938 22.359375 11.171875 23.097656 10.976562 L 21.949219 10.289062 C 21.023438 10.628906 17.953125 11.734375 17 11.734375 C 16.050781 11.734375 12.976562 10.628906 12.050781 10.289062 Z M 12.691406 9.457031 C 14.226562 10.015625 16.40625 10.734375 17 10.734375 C 17.589844 10.734375 19.765625 10.019531 21.300781 9.460938 L 19.421875 6.074219 C 19.382812 6.007812 19.265625 5.980469 19.175781 6.035156 L 17.613281 6.972656 C 17.234375 7.199219 16.765625 7.199219 16.386719 6.972656 L 14.824219 6.035156 C 14.730469 5.976562 14.597656 6 14.523438 6.035156 Z M 20.957031 12.695312 C 20.941406 12.699219 20.925781 12.703125 20.910156 12.710938 C 19.324219 13.238281 17.832031 13.734375 17 13.734375 C 16.167969 13.734375 14.675781 13.238281 13.09375 12.710938 C 13.078125 12.703125 13.058594 12.699219 13.042969 12.695312 C 13.359375 14.65625 15.511719 17.734375 17 17.734375 C 18.488281 17.734375 20.640625 14.65625 20.957031 12.695312 M 9.019531 11.371094 C 8.960938 11.15625 9.050781 10.925781 9.242188 10.808594 L 11.585938 9.398438 L 13.699219 5.453125 C 13.730469 5.402344 13.769531 5.355469 13.808594 5.3125 C 14.15625 5.011719 14.808594 4.859375 15.339844 5.175781 L 16.902344 6.113281 C 16.960938 6.152344 17.039062 6.152344 17.097656 6.113281 L 18.660156 5.175781 C 19.21875 4.847656 19.9375 5.019531 20.285156 5.566406 L 22.410156 9.398438 L 24.757812 10.808594 C 24.953125 10.921875 25.046875 11.152344 24.984375 11.371094 C 24.925781 11.589844 24.726562 11.738281 24.5 11.734375 C 24.003906 11.734375 23.023438 12.019531 21.992188 12.351562 C 21.90625 14.636719 19.3125 18.734375 17 18.734375 C 14.6875 18.734375 12.09375 14.636719 12.007812 12.351562 C 10.976562 12.019531 9.996094 11.734375 9.5 11.734375 C 9.277344 11.734375 9.082031 11.585938 9.019531 11.371094 M 23.710938 19.234375 L 23.855469 19.089844 C 23.957031 18.988281 24.011719 18.84375 24 18.699219 C 23.988281 18.554688 23.917969 18.421875 23.800781 18.335938 L 21.800781 16.835938 L 21.199219 17.636719 L 22.742188 18.789062 L 22.523438 19.007812 L 22.5 19.007812 L 22.5 19.03125 L 19.648438 21.882812 C 19.554688 21.976562 19.5 22.105469 19.5 22.238281 C 19.5 22.371094 19.554688 22.496094 19.648438 22.589844 L 20.824219 23.765625 L 18.617188 26.414062 L 19.382812 27.054688 L 21.882812 24.054688 C 22.050781 23.855469 22.035156 23.5625 21.851562 23.382812 L 20.707031 22.234375 L 22.898438 20.046875 C 24.445312 20.320312 26 22.097656 26 23.734375 L 26 27.1875 L 27 27.1875 L 27 23.734375 C 27 21.820312 25.484375 19.878906 23.710938 19.234375 M 14.886719 25.523438 L 12.542969 23.167969 C 12.363281 23.394531 12.160156 23.597656 11.933594 23.777344 L 14.285156 26.125 C 14.453125 26.277344 14.710938 26.265625 14.867188 26.105469 C 14.949219 26.03125 14.996094 25.929688 15 25.820312 C 15.003906 25.710938 14.964844 25.601562 14.886719 25.523438 M 9.25 23.734375 C 11.042969 23.726562 12.496094 22.277344 12.5 20.484375 C 12.5 18.691406 11.042969 17.234375 9.25 17.234375 C 7.457031 17.238281 6.003906 18.691406 6 20.484375 C 6.003906 22.277344 7.457031 23.726562 9.25 23.734375 M 15.597656 24.816406 C 15.859375 25.082031 16.003906 25.445312 16 25.820312 C 15.996094 26.195312 15.84375 26.550781 15.574219 26.8125 C 15.304688 27.082031 14.941406 27.234375 14.558594 27.234375 C 14.191406 27.234375 13.839844 27.089844 13.578125 26.832031 L 11.066406 24.320312 C 10.5 24.59375 9.878906 24.734375 9.25 24.734375 C 6.902344 24.734375 5 22.832031 5 20.484375 C 5 18.136719 6.902344 16.234375 9.25 16.234375 C 11.597656 16.234375 13.5 18.136719 13.5 20.484375 C 13.5 21.113281 13.359375 21.730469 13.089844 22.296875 Z M 19.148438 18.882812 L 17 21.027344 L 14.851562 18.882812 L 14.148438 19.589844 L 16.648438 22.089844 C 16.742188 22.183594 16.867188 22.234375 17 22.234375 C 17.132812 22.234375 17.257812 22.183594 17.351562 22.089844 L 19.851562 19.589844 Z M 23 27.191406 L 24 27.191406 L 24 24.234375 L 23 24.234375 Z M 23 27.191406 "/>
</svg>

<svg role="img" viewBox="0 0 32 32" height="32" width="32" xmlns="http://www.w3.org/2000/svg"><defs><linearGradient gradientTransform="scale(32)" gradientUnits="userSpaceOnUse" id="499__498__344__343__73__72__348__347__343__342__73__72__257__256__153__152__231__230__69__68__aws-detective_svg__svg/aws-detective.svg455__svg/aws-detective.svg453__aws-detective-lp-0" x1="0" x2="1" y1="1" y2="0"><stop offset="0" stop-color="rgb(74.117647%, 3.137255%, 8.627451%)"/><stop offset="1" stop-color="rgb(100%, 32.156863%, 32.156863%)"/></linearGradient></defs><path d="M-3.2-3.2h38.4v38.4H-3.2z" fill="url(#499__498__344__343__73__72__348__347__343__342__73__72__257__256__153__152__231__230__69__68__aws-detective_svg__svg/aws-detective.svg455__svg/aws-detective.svg453__aws-detective-lp-0)"/><path d="M10.902 10.977c.739.195 1.61.484 2.508.785 1.367.457 2.922.972 3.59.972.668 0 2.223-.515 3.594-.972.898-.301 1.765-.59 2.504-.785l-1.149-.688c-.926.34-3.996 1.445-4.949 1.445-.95 0-4.023-1.105-4.95-1.445Zm1.79-1.52c1.535.559 3.714 1.277 4.308 1.277.59 0 2.766-.714 4.3-1.273l-1.878-3.387c-.04-.066-.156-.094-.246-.039l-1.563.938a1.192 1.192 0 0 1-1.226 0l-1.563-.938c-.094-.058-.226-.035-.3 0Zm8.265 3.238a.218.218 0 0 0-.047.016c-1.586.527-3.078 1.023-3.91 1.023-.832 0-2.324-.496-3.906-1.023-.016-.008-.035-.012-.051-.016.316 1.961 2.469 5.04 3.957 5.04s3.64-3.079 3.957-5.04M9.02 11.371a.505.505 0 0 1 .222-.562l2.344-1.41 2.113-3.946a.967.967 0 0 1 .11-.14c.347-.301 1-.454 1.53-.137l1.563.937c.059.04.137.04.196 0l1.562-.937a1.203 1.203 0 0 1 1.625.39l2.125 3.832 2.348 1.41a.493.493 0 0 1 .226.563.49.49 0 0 1-.484.363c-.496 0-1.477.286-2.508.618-.086 2.285-2.68 6.382-4.992 6.382s-4.906-4.097-4.992-6.382c-1.031-.332-2.012-.618-2.508-.618a.502.502 0 0 1-.48-.363m14.69 7.863.145-.144a.5.5 0 0 0-.054-.754l-2-1.5-.602.8 1.543 1.153-.219.219H22.5v.023l-2.852 2.852a.497.497 0 0 0 0 .707l1.176 1.176-2.207 2.648.766.64 2.5-3a.494.494 0 0 0-.031-.671l-1.145-1.149 2.191-2.187c1.547.273 3.102 2.05 3.102 3.687v3.453h1v-3.453c0-1.914-1.516-3.855-3.29-4.5m-8.823 6.29-2.344-2.356a3.91 3.91 0 0 1-.61.61l2.352 2.347a.42.42 0 0 0 .582-.02.401.401 0 0 0 .133-.285.4.4 0 0 0-.113-.297M9.25 23.734a3.26 3.26 0 0 0 3.25-3.25 3.253 3.253 0 0 0-3.25-3.25A3.258 3.258 0 0 0 6 20.484a3.26 3.26 0 0 0 3.25 3.25m6.348 1.082a1.411 1.411 0 0 1-.024 1.997c-.27.269-.633.421-1.015.421a1.39 1.39 0 0 1-.98-.402l-2.513-2.512a4.177 4.177 0 0 1-1.816.414 4.25 4.25 0 1 1 0-8.5 4.25 4.25 0 0 1 4.25 4.25c0 .63-.14 1.246-.41 1.813Zm3.55-5.933L17 21.027l-2.148-2.144-.704.707 2.5 2.5a.493.493 0 0 0 .352.144c.133 0 .258-.05.352-.144l2.5-2.5ZM23 27.19h1v-2.957h-1Zm0 0" fill="rgb(100%, 100%, 100%)" fill-rule="evenodd"/></svg>
